X: 39
T: Xiunshangge huixiaozi you haiburu me
L: 1/8
M: 4/8
K: A
c' c' f' [I:setbarnb 1]| 
b a a f | 
e> f c' e | 
c4 | 
[M:3/8]c' c' f' | 
[M:4/8]b a a f | 
e> f c' e | 
f4 |]

@@@ Tune index: 8913
